X:1
T:Malcom the Menace
M:6/8
L:1/8
Q:80
C:Robert MacNeil
S:Jig
K:HP
|: {g}dB{d}A{g}fed | \
a{g}a{g}aged | \
{g}ec{d}A{g}ABc |
{g}dfd{gfg}f2e{g}dB{d}A{g}fed | \
a{g}a{g}aged | \
{g}ec{d}A{g}ABc |
{g}dfd{Gdc}d3 :: \
{g}ec{d}A{gf}g2f | \
e{g}e{A}e{g}ec{d}A |
{g}d{e}d{c}d{gfg}f2g | \
a{g}a{g}aged{g}ec{d}A{gef}e2f | \
{a}gag{a}fed |
{g}ec{d}A{g}ABc | \
{g}dfe{Gdc}d3 :|
